public/avatar/emote/13.svg

<svg xmlns:xlink="http://www.w3.org/1999/xlink" height="100.8" width="132.65" xmlns="http://www.w3.org/2000/svg"><g transform="translate(77.75 73.55)"><use height="8.4" transform="translate(-11.95 -5.85)" width="24.45" xlink:href="#a"/><use height="10.6" transform="translate(-11.2 1.75)" width="23.25" xlink:href="#b"/><use height="11.5" transform="translate(17.8 -7)" width="13.9" xlink:href="#c"/><use height="11.5" transform="matrix(.7 0 0 .7 -23.57 -10.825)" width="13.9" xlink:href="#c"/><use height="11.5" transform="matrix(.49 0 0 .49 -27.029 -1.017)" width="13.9" xlink:href="#c"/></g><defs><use height="8.4" transform="translate(0 1.1)" width="23.25" xlink:href="#d" id="b"/><use height="8.4" width="23.25" xlink:href="#e" id="d"/><use height="11.5" transform="translate(.4)" width="13.45" xlink:href="#f" id="c"/><g id="a"><path d="M2.7-3.25q-.1.25-.05.65-.05.75.35 1.3.4.5.95.5.55 0 .95-.5.4-.55.4-1.3 0-.85-.4-1.35l-.45-.4q1.1-.6 2.4-.85l3 .25h.2l-1.1 2.7-.6 1.1-.9 1.6q-1 1.2-2.3 1.4l-.5.05-1-.15Q2.6 1.4 1.85.45q-.65-.8-.9-1.7L.9-1.4l1.8-1.85M-2.5 1.6l-1.5.35-1.1-.2q-.95-.3-1.7-1.25l-.9-1.6q-.65-1.95-.75-4.15 4.65-.55 7.15 2.4l1.1 1.4-.05.2Q-.55-.3-1.2.5l-1.3 1.1m5.8-5.15.35-.15.3.15.2.5-.2.45-.3.2q-.25-.05-.35-.2-.15-.2-.15-.45l.15-.5" fill="#fff" fill-rule="evenodd" transform="translate(11.95 5.85)"/><path d="m4.45-4.35.45.4q.4.5.4 1.35 0 .75-.4 1.3-.4.5-.95.5-.55 0-.95-.5-.4-.55-.35-1.3-.05-.4.05-.65.8-.7 1.75-1.1-.95.4-1.75 1.1l.3-.7q.4-.55.95-.5l.5.1m-1.15.8-.15.5q0 .25.15.45.1.15.35.2l.3-.2.2-.45-.2-.5-.3-.15-.35.15" fill-rule="evenodd" transform="translate(11.95 5.85)"/><path d="m8.35-1.15.6.3q3.5 1.8 3.55 2.8 0 .95-3.15.4l-4.2-.5q1.3-.2 2.3-1.4l.9-1.6m-4.7 2.9L1.2 1.6h-3.7L-1.2.5q.65-.8.95-1.75l.05-.2.15-1.2H.7L.9-1.4l.05.15q.25.9.9 1.7.75.95 1.8 1.3m-8.75 0-2.75.4-4.1-.2q0-.95 3.7-2.75l.55-.3.9 1.6q.75.95 1.7 1.25" fill-opacity=".153" fill-rule="evenodd" transform="translate(11.95 5.85)"/><path d="M4.45-4.35q-.95.4-1.75 1.1L.9-1.4.7-2.65m3.75-1.7q1.1-.6 2.4-.85l3 .25h.2m-18.5-.3q4.65-.55 7.15 2.4l1.1 1.4.15-1.2" fill="none" stroke="#666" stroke-linecap="round" stroke-linejoin="round" transform="translate(11.95 5.85)"/><path d="m10.05-4.95-1.1 2.7-.6 1.1-.9 1.6q-1 1.2-2.3 1.4l-.5.05-1-.15Q2.6 1.4 1.85.45q-.65-.8-.9-1.7L.9-1.4m-3.4 3-1.5.35-1.1-.2q-.95-.3-1.7-1.25l-.9-1.6q-.65-1.95-.75-4.15m8.25 3.8-.05.2Q-.55-.3-1.2.5l-1.3 1.1" fill="none" stroke="#900" stroke-linecap="round" stroke-linejoin="round" transform="translate(11.95 5.85)"/><path d="M-4.15-4q.4-.5.95-.45.55-.05.95.45.4.55.4 1.35t-.4 1.3q-.4.55-.95.55-.55 0-.95-.55-.4-.5-.4-1.3t.4-1.35m.3.45-.15.5.15.4.35.25.3-.25q.15-.15.15-.4l-.15-.5q-.1-.2-.3-.2l-.35.2" fill-rule="evenodd" transform="translate(11.95 5.85)"/><path d="m-3.85-3.55.35-.2q.2 0 .3.2l.15.5q0 .25-.15.4l-.3.25-.35-.25-.15-.4.15-.5" fill="#fff" fill-rule="evenodd" transform="translate(11.95 5.85)"/></g><g id="e"><path d="M2.6 2.45q.2-.65.75-1.45L4-.45l1.65.4q1.25.4 2.5 1.35Q6.9.35 5.65-.05L4-.45 3.35 1q-.55.8-.75 1.45-3.2-.25-6.3.65L-5.1 1l-.4-.8 3.8-.95L0-.8v2.45V-.8l-1.7.05-3.8.95.4.8 1.4 2.1-.6.15-.8.2-1.85.25-1.3-1.6-.2-.35L-9.5-.9q1.25-1.15 3.6-1.95 2.75-.9 5.75-.85l2.85.3q3.8.5 6.15 2.25l.3.2-1 2.25-.75.85-.9.95-1-.2-.75-.15-2.15-.3m1.6-5L4-.45 2.1-.7 0-.8l-.15-2.9L0-.8l2.1.1L4-.45l.2-2.1m-10.1-.3q-.05 1.9.4 3.05h-.05l-2.9 1.55L-5.55.2h.05q-.45-1.15-.4-3.05" fill="#fff" fill-rule="evenodd" transform="translate(11.6 4.2)"/><path d="m6.5 3.1.9-.95.75-.85 1-2.25Q10.3-.1 10.9.9q.7 1.15-.4 2.05l-2.8.35-1.2-.2m-13.45.6-1.9-.15Q-11.5 3.05-11 1.3q.35-1.25 1.5-2.2l1.05 2.65.2.35 1.3 1.6" fill="#666" fill-rule="evenodd" transform="translate(11.6 4.2)"/><path d="m2.6 2.45 2.15.3.75.15 1 .2 1.2.2 2.8-.35q1.1-.9.4-2.05-.6-1-1.75-1.85l-.3-.2Q6.5-2.9 2.7-3.4l-2.85-.3q-3-.05-5.75.85-2.35.8-3.6 1.95-1.15.95-1.5 2.2-.5 1.75 2.15 2.25l1.9.15 1.85-.25.8-.2.6-.15q3.1-.9 6.3-.65" fill="none" stroke="#333" stroke-linecap="round" stroke-linejoin="round" transform="translate(11.6 4.2)"/><path d="M8.15 1.3Q6.9.35 5.65-.05L4-.45 3.35 1q-.55.8-.75 1.45m3.9.65.9-.95.75-.85 1-2.25M-.15-3.7 0-.8l2.1.1L4-.45l.2-2.1M0 1.65V-.8l-1.7.05-3.8.95.4.8 1.4 2.1m-5.8-4 1.05 2.65L-5.55.2h.05q-.45-1.15-.4-3.05m-2.55 4.6.2.35 1.3 1.6" fill="none" stroke="#666" stroke-linecap="round" stroke-linejoin="round" transform="translate(11.6 4.2)"/></g><path d="M6.7-.25q.25 1.9-.9 2.5.15.7-.3 1.65-.35.8-1.25.85-1.1.05-1.65-.45l-.1.15Q1.3 6.4-1.05 5.4q-1.1-.5-1.5-1.35l-.8-.1Q-6.5 3.5-6.7.75-6.9-1.8-4.45-2.3h.3q-.2-2.9 2.7-3.4 3.2-.35 4.55 1.85 3.25.2 3.6 3.6" fill="#666" fill-rule="evenodd" transform="translate(6.7 5.75)" id="f"/></defs></svg>

<?xml version="1.0" encoding="UTF-8" standalone="no"?>
<svg xmlns:xlink="http://www.w3.org/1999/xlink" height="100.8px" width="132.65px" xmlns="http://www.w3.org/2000/svg">
  <g transform="matrix(1.0, 0.0, 0.0, 1.0, 77.75, 73.55)">
    <use height="8.4" transform="matrix(1.0, 0.0, 0.0, 1.0, -11.95, -5.85)" width="24.45" xlink:href="#shape0"/>
    <use height="10.6" transform="matrix(1.0, 0.0, 0.0, 1.0, -11.2, 1.75)" width="23.25" xlink:href="#sprite0"/>
    <use height="11.5" transform="matrix(1.0, 0.0, 0.0, 1.0, 17.8, -7.0)" width="13.9" xlink:href="#sprite2"/>
    <use height="11.5" transform="matrix(0.7, 0.0, 0.0, 0.7, -23.57, -10.825)" width="13.9" xlink:href="#sprite2"/>
    <use height="11.5" transform="matrix(0.49, 0.0, 0.0, 0.49, -27.0289, -1.0174)" width="13.9" xlink:href="#sprite2"/>
  </g>
  <defs>
    <g id="shape0" transform="matrix(1.0, 0.0, 0.0, 1.0, 11.95, 5.85)">
      <path d="M2.7 -3.25 Q2.6 -3.0 2.65 -2.6 2.6 -1.85 3.0 -1.3 3.4 -0.8 3.95 -0.8 4.5 -0.8 4.9 -1.3 5.3 -1.85 5.3 -2.6 5.3 -3.45 4.9 -3.95 L4.45 -4.35 Q5.55 -4.95 6.85 -5.2 L9.85 -4.95 10.05 -4.95 8.95 -2.25 8.35 -1.15 7.45 0.45 Q6.45 1.65 5.15 1.85 L4.65 1.9 3.65 1.75 Q2.6 1.4 1.85 0.45 1.2 -0.35 0.95 -1.25 L0.9 -1.4 2.7 -3.25 M-2.5 1.6 L-4.0 1.95 -5.1 1.75 Q-6.05 1.45 -6.8 0.5 L-7.7 -1.1 Q-8.35 -3.05 -8.45 -5.25 -3.8 -5.8 -1.3 -2.85 L-0.2 -1.45 -0.25 -1.25 Q-0.55 -0.3 -1.2 0.5 L-2.5 1.6 M3.3 -3.55 L3.65 -3.7 3.95 -3.55 4.15 -3.05 3.95 -2.6 3.65 -2.4 Q3.4 -2.45 3.3 -2.6 3.15 -2.8 3.15 -3.05 L3.3 -3.55" fill="#ffffff" fill-rule="evenodd" stroke="none"/>
      <path d="M4.45 -4.35 L4.9 -3.95 Q5.3 -3.45 5.3 -2.6 5.3 -1.85 4.9 -1.3 4.5 -0.8 3.95 -0.8 3.4 -0.8 3.0 -1.3 2.6 -1.85 2.65 -2.6 2.6 -3.0 2.7 -3.25 3.5 -3.95 4.45 -4.35 3.5 -3.95 2.7 -3.25 L3.0 -3.95 Q3.4 -4.5 3.95 -4.45 L4.45 -4.35 M3.3 -3.55 L3.15 -3.05 Q3.15 -2.8 3.3 -2.6 3.4 -2.45 3.65 -2.4 L3.95 -2.6 4.15 -3.05 3.95 -3.55 3.65 -3.7 3.3 -3.55" fill="#000000" fill-rule="evenodd" stroke="none"/>
      <path d="M8.35 -1.15 L8.95 -0.85 Q12.45 0.95 12.5 1.95 12.5 2.9 9.35 2.35 L5.15 1.85 Q6.45 1.65 7.45 0.45 L8.35 -1.15 M3.65 1.75 L1.2 1.6 -2.5 1.6 -1.2 0.5 Q-0.55 -0.3 -0.25 -1.25 L-0.2 -1.45 -0.05 -2.65 0.45 -2.65 0.7 -2.65 0.9 -1.4 0.95 -1.25 Q1.2 -0.35 1.85 0.45 2.6 1.4 3.65 1.75 M-5.1 1.75 L-7.85 2.15 -11.95 1.95 Q-11.95 1.0 -8.25 -0.8 L-7.7 -1.1 -6.8 0.5 Q-6.05 1.45 -5.1 1.75" fill="#000000" fill-opacity="0.15294118" fill-rule="evenodd" stroke="none"/>
      <path d="M4.45 -4.35 Q3.5 -3.95 2.7 -3.25 L0.9 -1.4 0.7 -2.65 M4.45 -4.35 Q5.55 -4.95 6.85 -5.2 L9.85 -4.95 10.05 -4.95 M-8.45 -5.25 Q-3.8 -5.8 -1.3 -2.85 L-0.2 -1.45 -0.05 -2.65" fill="none" stroke="#666666" stroke-linecap="round" stroke-linejoin="round" stroke-width="1.0"/>
      <path d="M10.05 -4.95 L8.95 -2.25 8.35 -1.15 7.45 0.45 Q6.45 1.65 5.15 1.85 L4.65 1.9 3.65 1.75 Q2.6 1.4 1.85 0.45 1.2 -0.35 0.95 -1.25 L0.9 -1.4 M-2.5 1.6 L-4.0 1.95 -5.1 1.75 Q-6.05 1.45 -6.8 0.5 L-7.7 -1.1 Q-8.35 -3.05 -8.45 -5.25 M-0.2 -1.45 L-0.25 -1.25 Q-0.55 -0.3 -1.2 0.5 L-2.5 1.6" fill="none" stroke="#990000" stroke-linecap="round" stroke-linejoin="round" stroke-width="1.0"/>
      <path d="M-4.15 -4.0 Q-3.75 -4.5 -3.2 -4.45 -2.65 -4.5 -2.25 -4.0 -1.85 -3.45 -1.85 -2.65 -1.85 -1.85 -2.25 -1.35 -2.65 -0.8 -3.2 -0.8 -3.75 -0.8 -4.15 -1.35 -4.55 -1.85 -4.55 -2.65 -4.55 -3.45 -4.15 -4.0 M-3.85 -3.55 L-4.0 -3.05 -3.85 -2.65 -3.5 -2.4 -3.2 -2.65 Q-3.05 -2.8 -3.05 -3.05 L-3.2 -3.55 Q-3.3 -3.75 -3.5 -3.75 L-3.85 -3.55" fill="#000000" fill-rule="evenodd" stroke="none"/>
      <path d="M-3.85 -3.55 L-3.5 -3.75 Q-3.3 -3.75 -3.2 -3.55 L-3.05 -3.05 Q-3.05 -2.8 -3.2 -2.65 L-3.5 -2.4 -3.85 -2.65 -4.0 -3.05 -3.85 -3.55" fill="#ffffff" fill-rule="evenodd" stroke="none"/>
    </g>
    <g id="sprite0" transform="matrix(1.0, 0.0, 0.0, 1.0, 11.6, 5.3)">
      <use height="8.4" transform="matrix(1.0, 0.0, 0.0, 1.0, -11.6, -4.2)" width="23.25" xlink:href="#sprite1"/>
    </g>
    <g id="sprite1" transform="matrix(1.0, 0.0, 0.0, 1.0, 11.6, 4.2)">
      <use height="8.4" transform="matrix(1.0, 0.0, 0.0, 1.0, -11.6, -4.2)" width="23.25" xlink:href="#shape1"/>
    </g>
    <g id="shape1" transform="matrix(1.0, 0.0, 0.0, 1.0, 11.6, 4.2)">
      <path d="M2.6 2.45 Q2.8 1.8 3.35 1.0 L4.0 -0.45 5.65 -0.05 Q6.9 0.35 8.15 1.3 6.9 0.35 5.65 -0.05 L4.0 -0.45 3.35 1.0 Q2.8 1.8 2.6 2.45 -0.6 2.2 -3.7 3.1 L-5.1 1.0 -5.5 0.2 -1.7 -0.75 0.0 -0.8 0.0 0.45 0.0 1.65 0.0 0.45 0.0 -0.8 -1.7 -0.75 -5.5 0.2 -5.1 1.0 -3.7 3.1 -4.3 3.25 -5.1 3.45 -6.95 3.7 -8.25 2.1 -8.45 1.75 -9.5 -0.9 Q-8.25 -2.05 -5.9 -2.85 -3.15 -3.75 -0.15 -3.7 L2.7 -3.4 Q6.5 -2.9 8.85 -1.15 L9.15 -0.95 8.15 1.3 7.4 2.15 6.5 3.1 5.5 2.9 4.75 2.75 2.6 2.45 M4.2 -2.55 L4.0 -0.45 2.1 -0.7 0.0 -0.8 -0.15 -3.7 0.0 -0.8 2.1 -0.7 4.0 -0.45 4.2 -2.55 M-5.9 -2.85 Q-5.95 -0.95 -5.5 0.2 L-5.55 0.2 -8.45 1.75 -5.55 0.2 -5.5 0.2 Q-5.95 -0.95 -5.9 -2.85" fill="#ffffff" fill-rule="evenodd" stroke="none"/>
      <path d="M6.5 3.1 L7.4 2.15 8.15 1.3 9.15 -0.95 Q10.3 -0.1 10.9 0.9 11.6 2.05 10.5 2.95 L7.7 3.3 6.5 3.1 M-6.95 3.7 L-8.85 3.55 Q-11.5 3.05 -11.0 1.3 -10.65 0.05 -9.5 -0.9 L-8.45 1.75 -8.25 2.1 -6.95 3.7" fill="#666666" fill-rule="evenodd" stroke="none"/>
      <path d="M2.6 2.45 L4.75 2.75 5.5 2.9 6.5 3.1 7.7 3.3 10.5 2.95 Q11.6 2.05 10.9 0.9 10.3 -0.1 9.15 -0.95 L8.85 -1.15 Q6.5 -2.9 2.7 -3.4 L-0.15 -3.7 Q-3.15 -3.75 -5.9 -2.85 -8.25 -2.05 -9.5 -0.9 -10.65 0.05 -11.0 1.3 -11.5 3.05 -8.85 3.55 L-6.95 3.7 -5.1 3.45 -4.3 3.25 -3.7 3.1 Q-0.6 2.2 2.6 2.45" fill="none" stroke="#333333" stroke-linecap="round" stroke-linejoin="round" stroke-width="1.0"/>
      <path d="M8.15 1.3 Q6.9 0.35 5.65 -0.05 L4.0 -0.45 3.35 1.0 Q2.8 1.8 2.6 2.45 M6.5 3.1 L7.4 2.15 8.15 1.3 9.15 -0.95 M-0.15 -3.7 L0.0 -0.8 2.1 -0.7 4.0 -0.45 4.2 -2.55 M0.0 1.65 L0.0 0.45 0.0 -0.8 -1.7 -0.75 -5.5 0.2 -5.1 1.0 -3.7 3.1 M-9.5 -0.9 L-8.45 1.75 -5.55 0.2 -5.5 0.2 Q-5.95 -0.95 -5.9 -2.85 M-8.45 1.75 L-8.25 2.1 -6.95 3.7" fill="none" stroke="#666666" stroke-linecap="round" stroke-linejoin="round" stroke-width="1.0"/>
    </g>
    <g id="sprite2" transform="matrix(1.0, 0.0, 0.0, 1.0, 7.1, 5.75)">
      <use height="11.5" transform="matrix(1.0, 0.0, 0.0, 1.0, -6.7, -5.75)" width="13.45" xlink:href="#shape2"/>
    </g>
    <g id="shape2" transform="matrix(1.0, 0.0, 0.0, 1.0, 6.7, 5.75)">
      <path d="M6.7 -0.25 Q6.95 1.65 5.8 2.25 5.95 2.95 5.5 3.9 5.15 4.7 4.25 4.75 3.15 4.8 2.6 4.3 L2.5 4.45 Q1.3 6.4 -1.05 5.4 -2.15 4.9 -2.55 4.05 L-3.35 3.95 Q-6.5 3.5 -6.7 0.75 -6.9 -1.8 -4.45 -2.3 L-4.15 -2.3 Q-4.35 -5.2 -1.45 -5.7 1.75 -6.05 3.1 -3.85 6.35 -3.65 6.7 -0.25" fill="#666666" fill-rule="evenodd" stroke="none"/>
    </g>
  </defs>
</svg>
